X: 2
T: Lakes Of Kincora, The
M: 4/4
L: 1/8
R: hornpipe
K: Cmaj
|: (3GAB |\
c>d (3cBA G>FE>G | c>Gc>d e>gc'>b | 
a>gf>e d>ec>d |[1 e>dc>B (3ABA :|[2 e>cc>B c2 ||
|: (3efa |\
g>e g>a g>e c>G | c>e g>a (3gc'g c'>b |
~a2 c'>a g>e c>e | (3faf (3ege d>c A>B |
c>d (3cBA G>F E>G|c>G c>d e>g c'>b|
a>g f>e d>e c>d|e>c c>B c2 (3efa |]
